; LightBurn 1.0.04
; GRBL device profile, current position
; Bounds: X0 Y0 to X90 Y90
G00 G17 G40 G21 G54
G91
M4
; Cut @ 100 mm/min, 100% power
M8
G0X10Y0
; Layer C00
G1X-10S100F100
G1Y5
G1Y0.129
G1X0.007Y0.128
G1X0.008Y0.128
G1X0.011Y0.126
G1X0.014Y0.126
G1X0.018Y0.124
G1X0.02Y0.124
G1X0.024Y0.123
G1X0.026Y0.121
G1X0.029Y0.121
G1X0.033Y0.119
G1X0.035Y0.118
G1X0.038Y0.117
G1X0.04Y0.115
G1X0.044Y0.114
G1X0.046Y0.113
G1X0.049Y0.112
G1X0.051Y0.11
G1X0.054Y0.108
G1X0.056Y0.107
G1X0.059Y0.106
G1X0.062Y0.104
G1X0.064Y0.102
G1X0.066Y0.101
G1X0.068Y0.098
G1X0.071Y0.098
G1X0.073Y0.095
G1X0.076Y0.093
G1X0.077Y0.092
G1X0.08Y0.09
G1X0.082Y0.088
G1X0.083Y0.086
G1X0.086Y0.083
G1X0.088Y0.082
G1X0.09Y0.08
G1X0.092Y0.077
G1X0.093Y0.076
G1X0.095Y0.073
G1X0.098Y0.071
G1X0.098Y0.068
G1X0.101Y0.066
G1X0.102Y0.064
G1X0.104Y0.062
G1X0.106Y0.059
G1X0.107Y0.056
G1X0.108Y0.054
G1X0.11Y0.051
G1X0.112Y0.049
G1X0.113Y0.046
G1X0.114Y0.044
G1X0.115Y0.04
G1X0.117Y0.038
G1X0.118Y0.035
G1X0.119Y0.033
G1X0.121Y0.029
G1X0.121Y0.026
G1X0.123Y0.024
G1X0.124Y0.02
G1X0.124Y0.018
G1X0.126Y0.014
G1X0.126Y0.011
G1X0.128Y0.008
G1X0.128Y0.005
G1X0.129
G1X0.129
G1X0.128
G1X0.128Y-0.013
G1X0.126Y-0.011
G1X0.126Y-0.014
G1X0.124Y-0.018
G1X0.124Y-0.02
G1X0.123Y-0.024
G1X0.121Y-0.026
G1X0.121Y-0.029
G1X0.119Y-0.033
G1X0.118Y-0.035
G1X0.117Y-0.038
G1X0.115Y-0.04
G1X0.114Y-0.044
G1X0.113Y-0.046
G1X0.112Y-0.049
G1X0.11Y-0.051
G1X0.108Y-0.054
G1X0.107Y-0.056
G1X0.106Y-0.059
G1X0.104Y-0.062
G1X0.102Y-0.064
G1X0.101Y-0.066
G1X0.098Y-0.068
G1X0.098Y-0.071
G1X0.095Y-0.073
G1X0.093Y-0.076
G1X0.092Y-0.077
G1X0.09Y-0.08
G1X0.088Y-0.082
G1X0.086Y-0.083
G1X0.083Y-0.086
G1X0.082Y-0.088
G1X0.08Y-0.09
G1X0.077Y-0.092
G1X0.076Y-0.093
G1X0.073Y-0.095
G1X0.071Y-0.098
G1X0.068Y-0.098
G1X0.066Y-0.101
G1X0.064Y-0.102
G1X0.062Y-0.104
G1X0.059Y-0.106
G1X0.056Y-0.107
G1X0.054Y-0.108
G1X0.051Y-0.11
G1X0.049Y-0.112
G1X0.046Y-0.113
G1X0.044Y-0.114
G1X0.04Y-0.115
G1X0.038Y-0.117
G1X0.035Y-0.118
G1X0.033Y-0.119
G1X0.029Y-0.121
G1X0.026Y-0.121
G1X0.024Y-0.123
G1X0.02Y-0.124
G1X0.018Y-0.124
G1X0.014Y-0.126
G1X0.011Y-0.126
G1X0.008Y-0.128
G1X0.005Y-0.128
G1Y-0.129
G1Y-5
; Cut @ 100 mm/min, 80% power
M8
G0X20.002Y0
; Layer C01
G1X-10S80
G1Y5
G1Y0.129
G1X0.007Y0.128
G1X0.008Y0.128
G1X0.011Y0.126
G1X0.014Y0.126
G1X0.018Y0.124
G1X0.02Y0.124
G1X0.024Y0.123
G1X0.026Y0.121
G1X0.029Y0.121
G1X0.033Y0.119
G1X0.035Y0.118
G1X0.038Y0.117
G1X0.04Y0.115
G1X0.044Y0.114
G1X0.046Y0.113
G1X0.049Y0.112
G1X0.051Y0.11
G1X0.054Y0.108
G1X0.056Y0.107
G1X0.059Y0.106
G1X0.062Y0.104
G1X0.064Y0.102
G1X0.066Y0.101
G1X0.068Y0.098
G1X0.071Y0.098
G1X0.073Y0.095
G1X0.076Y0.093
G1X0.077Y0.092
G1X0.08Y0.09
G1X0.082Y0.088
G1X0.083Y0.086
G1X0.086Y0.083
G1X0.088Y0.082
G1X0.09Y0.08
G1X0.092Y0.077
G1X0.093Y0.076
G1X0.095Y0.073
G1X0.098Y0.071
G1X0.098Y0.068
G1X0.101Y0.066
G1X0.102Y0.064
G1X0.104Y0.062
G1X0.106Y0.059
G1X0.107Y0.056
G1X0.108Y0.054
G1X0.11Y0.051
G1X0.112Y0.049
G1X0.113Y0.046
G1X0.114Y0.044
G1X0.115Y0.04
G1X0.117Y0.038
G1X0.118Y0.035
G1X0.119Y0.033
G1X0.121Y0.029
G1X0.121Y0.026
G1X0.123Y0.024
G1X0.124Y0.02
G1X0.124Y0.018
G1X0.126Y0.014
G1X0.126Y0.011
G1X0.128Y0.008
G1X0.128Y0.005
G1X0.129
G1X0.129
G1X0.128
G1X0.128Y-0.013
G1X0.126Y-0.011
G1X0.126Y-0.014
G1X0.124Y-0.018
G1X0.124Y-0.02
G1X0.123Y-0.024
G1X0.121Y-0.026
G1X0.121Y-0.029
G1X0.119Y-0.033
G1X0.118Y-0.035
G1X0.117Y-0.038
G1X0.115Y-0.04
G1X0.114Y-0.044
G1X0.113Y-0.046
G1X0.112Y-0.049
G1X0.11Y-0.051
G1X0.108Y-0.054
G1X0.107Y-0.056
G1X0.106Y-0.059
G1X0.104Y-0.062
G1X0.102Y-0.064
G1X0.101Y-0.066
G1X0.098Y-0.068
G1X0.098Y-0.071
G1X0.095Y-0.073
G1X0.093Y-0.076
G1X0.092Y-0.077
G1X0.09Y-0.08
G1X0.088Y-0.082
G1X0.086Y-0.083
G1X0.083Y-0.086
G1X0.082Y-0.088
G1X0.08Y-0.09
G1X0.077Y-0.092
G1X0.076Y-0.093
G1X0.073Y-0.095
G1X0.071Y-0.098
G1X0.068Y-0.098
G1X0.066Y-0.101
G1X0.064Y-0.102
G1X0.062Y-0.104
G1X0.059Y-0.106
G1X0.056Y-0.107
G1X0.054Y-0.108
G1X0.051Y-0.11
G1X0.049Y-0.112
G1X0.046Y-0.113
G1X0.044Y-0.114
G1X0.04Y-0.115
G1X0.038Y-0.117
G1X0.035Y-0.118
G1X0.033Y-0.119
G1X0.029Y-0.121
G1X0.026Y-0.121
G1X0.024Y-0.123
G1X0.02Y-0.124
G1X0.018Y-0.124
G1X0.014Y-0.126
G1X0.011Y-0.126
G1X0.008Y-0.128
G1X0.005Y-0.128
G1Y-0.129
G1Y-5
; Cut @ 100 mm/min, 60% power
M8
G0X20.002Y0
; Layer C02
G1X-10S60
G1Y5
G1Y0.129
G1X0.007Y0.128
G1X0.008Y0.128
G1X0.011Y0.126
G1X0.014Y0.126
G1X0.018Y0.124
G1X0.02Y0.124
G1X0.024Y0.123
G1X0.026Y0.121
G1X0.029Y0.121
G1X0.033Y0.119
G1X0.035Y0.118
G1X0.038Y0.117
G1X0.04Y0.115
G1X0.044Y0.114
G1X0.046Y0.113
G1X0.049Y0.112
G1X0.051Y0.11
G1X0.054Y0.108
G1X0.056Y0.107
G1X0.059Y0.106
G1X0.062Y0.104
G1X0.064Y0.102
G1X0.066Y0.101
G1X0.068Y0.098
G1X0.071Y0.098
G1X0.073Y0.095
G1X0.076Y0.093
G1X0.077Y0.092
G1X0.08Y0.09
G1X0.082Y0.088
G1X0.083Y0.086
G1X0.086Y0.083
G1X0.088Y0.082
G1X0.09Y0.08
G1X0.092Y0.077
G1X0.093Y0.076
G1X0.095Y0.073
G1X0.098Y0.071
G1X0.098Y0.068
G1X0.101Y0.066
G1X0.102Y0.064
G1X0.104Y0.062
G1X0.106Y0.059
G1X0.107Y0.056
G1X0.108Y0.054
G1X0.11Y0.051
G1X0.112Y0.049
G1X0.113Y0.046
G1X0.114Y0.044
G1X0.115Y0.04
G1X0.117Y0.038
G1X0.118Y0.035
G1X0.119Y0.033
G1X0.121Y0.029
G1X0.121Y0.026
G1X0.123Y0.024
G1X0.124Y0.02
G1X0.124Y0.018
G1X0.126Y0.014
G1X0.126Y0.011
G1X0.128Y0.008
G1X0.128Y0.005
G1X0.129
G1X0.129
G1X0.128
G1X0.128Y-0.013
G1X0.126Y-0.011
G1X0.126Y-0.014
G1X0.124Y-0.018
G1X0.124Y-0.02
G1X0.123Y-0.024
G1X0.121Y-0.026
G1X0.121Y-0.029
G1X0.119Y-0.033
G1X0.118Y-0.035
G1X0.117Y-0.038
G1X0.115Y-0.04
G1X0.114Y-0.044
G1X0.113Y-0.046
G1X0.112Y-0.049
G1X0.11Y-0.051
G1X0.108Y-0.054
G1X0.107Y-0.056
G1X0.106Y-0.059
G1X0.104Y-0.062
G1X0.102Y-0.064
G1X0.101Y-0.066
G1X0.098Y-0.068
G1X0.098Y-0.071
G1X0.095Y-0.073
G1X0.093Y-0.076
G1X0.092Y-0.077
G1X0.09Y-0.08
G1X0.088Y-0.082
G1X0.086Y-0.083
G1X0.083Y-0.086
G1X0.082Y-0.088
G1X0.08Y-0.09
G1X0.077Y-0.092
G1X0.076Y-0.093
G1X0.073Y-0.095
G1X0.071Y-0.098
G1X0.068Y-0.098
G1X0.066Y-0.101
G1X0.064Y-0.102
G1X0.062Y-0.104
G1X0.059Y-0.106
G1X0.056Y-0.107
G1X0.054Y-0.108
G1X0.051Y-0.11
G1X0.049Y-0.112
G1X0.046Y-0.113
G1X0.044Y-0.114
G1X0.04Y-0.115
G1X0.038Y-0.117
G1X0.035Y-0.118
G1X0.033Y-0.119
G1X0.029Y-0.121
G1X0.026Y-0.121
G1X0.024Y-0.123
G1X0.02Y-0.124
G1X0.018Y-0.124
G1X0.014Y-0.126
G1X0.011Y-0.126
G1X0.008Y-0.128
G1X0.005Y-0.128
G1Y-0.129
G1Y-5
; Cut @ 100 mm/min, 40% power
M8
G0X20.002Y0
; Layer C03
G1X-10S40
G1Y5
G1Y0.129
G1X0.006Y0.128
G1X0.009Y0.128
G1X0.011Y0.126
G1X0.014Y0.126
G1X0.018Y0.124
G1X0.02Y0.124
G1X0.024Y0.123
G1X0.026Y0.121
G1X0.029Y0.121
G1X0.033Y0.119
G1X0.035Y0.118
G1X0.038Y0.117
G1X0.04Y0.115
G1X0.044Y0.114
G1X0.046Y0.113
G1X0.049Y0.112
G1X0.051Y0.11
G1X0.054Y0.108
G1X0.056Y0.107
G1X0.059Y0.106
G1X0.062Y0.104
G1X0.064Y0.102
G1X0.066Y0.101
G1X0.068Y0.098
G1X0.071Y0.098
G1X0.073Y0.095
G1X0.076Y0.093
G1X0.077Y0.092
G1X0.08Y0.09
G1X0.082Y0.088
G1X0.083Y0.086
G1X0.086Y0.083
G1X0.088Y0.082
G1X0.09Y0.08
G1X0.092Y0.077
G1X0.093Y0.076
G1X0.095Y0.073
G1X0.098Y0.071
G1X0.098Y0.068
G1X0.101Y0.066
G1X0.102Y0.064
G1X0.104Y0.062
G1X0.106Y0.059
G1X0.107Y0.056
G1X0.108Y0.054
G1X0.11Y0.051
G1X0.112Y0.049
G1X0.113Y0.046
G1X0.114Y0.044
G1X0.115Y0.04
G1X0.117Y0.038
G1X0.118Y0.035
G1X0.119Y0.033
G1X0.121Y0.029
G1X0.121Y0.026
G1X0.123Y0.024
G1X0.124Y0.02
G1X0.124Y0.018
G1X0.126Y0.014
G1X0.126Y0.011
G1X0.128Y0.008
G1X0.128Y0.005
G1X0.129
G1X0.129
G1X0.128
G1X0.128Y-0.013
G1X0.126Y-0.011
G1X0.126Y-0.014
G1X0.124Y-0.018
G1X0.124Y-0.02
G1X0.123Y-0.024
G1X0.121Y-0.026
G1X0.121Y-0.029
G1X0.119Y-0.033
G1X0.118Y-0.035
G1X0.117Y-0.038
G1X0.115Y-0.04
G1X0.114Y-0.044
G1X0.113Y-0.046
G1X0.112Y-0.049
G1X0.11Y-0.051
G1X0.108Y-0.054
G1X0.107Y-0.056
G1X0.106Y-0.059
G1X0.104Y-0.062
G1X0.102Y-0.064
G1X0.101Y-0.066
G1X0.098Y-0.068
G1X0.098Y-0.071
G1X0.095Y-0.073
G1X0.093Y-0.076
G1X0.092Y-0.077
G1X0.09Y-0.08
G1X0.088Y-0.082
G1X0.086Y-0.083
G1X0.083Y-0.086
G1X0.082Y-0.088
G1X0.08Y-0.09
G1X0.077Y-0.092
G1X0.076Y-0.093
G1X0.073Y-0.095
G1X0.071Y-0.098
G1X0.068Y-0.098
G1X0.066Y-0.101
G1X0.064Y-0.102
G1X0.062Y-0.104
G1X0.059Y-0.106
G1X0.056Y-0.107
G1X0.054Y-0.108
G1X0.051Y-0.11
G1X0.049Y-0.112
G1X0.046Y-0.113
G1X0.044Y-0.114
G1X0.04Y-0.115
G1X0.038Y-0.117
G1X0.035Y-0.118
G1X0.033Y-0.119
G1X0.029Y-0.121
G1X0.026Y-0.121
G1X0.024Y-0.123
G1X0.02Y-0.124
G1X0.018Y-0.124
G1X0.014Y-0.126
G1X0.011Y-0.126
G1X0.008Y-0.128
G1X0.005Y-0.128
G1Y-0.129
G1Y-5
; Cut @ 100 mm/min, 20% power
M8
G0X20.002Y0
; Layer C04
G1X-10S20
G1Y5
G1Y0.129
G1X0.006Y0.128
G1X0.009Y0.128
G1X0.011Y0.126
G1X0.014Y0.126
G1X0.018Y0.124
G1X0.02Y0.124
G1X0.024Y0.123
G1X0.026Y0.121
G1X0.029Y0.121
G1X0.033Y0.119
G1X0.035Y0.118
G1X0.038Y0.117
G1X0.04Y0.115
G1X0.044Y0.114
G1X0.046Y0.113
G1X0.049Y0.112
G1X0.051Y0.11
G1X0.054Y0.108
G1X0.056Y0.107
G1X0.059Y0.106
G1X0.062Y0.104
G1X0.064Y0.102
G1X0.066Y0.101
G1X0.068Y0.098
G1X0.071Y0.098
G1X0.073Y0.095
G1X0.076Y0.093
G1X0.077Y0.092
G1X0.08Y0.09
G1X0.082Y0.088
G1X0.083Y0.086
G1X0.086Y0.083
G1X0.088Y0.082
G1X0.09Y0.08
G1X0.092Y0.077
G1X0.093Y0.076
G1X0.095Y0.073
G1X0.098Y0.071
G1X0.098Y0.068
G1X0.101Y0.066
G1X0.102Y0.064
G1X0.104Y0.062
G1X0.106Y0.059
G1X0.107Y0.056
G1X0.108Y0.054
G1X0.11Y0.051
G1X0.112Y0.049
G1X0.113Y0.046
G1X0.114Y0.044
G1X0.115Y0.04
G1X0.117Y0.038
G1X0.118Y0.035
G1X0.119Y0.033
G1X0.121Y0.029
G1X0.121Y0.026
G1X0.123Y0.024
G1X0.124Y0.02
G1X0.124Y0.018
G1X0.126Y0.014
G1X0.126Y0.011
G1X0.128Y0.008
G1X0.128Y0.005
G1X0.129
G1X0.129
G1X0.128
G1X0.128Y-0.013
G1X0.126Y-0.011
G1X0.126Y-0.014
G1X0.124Y-0.018
G1X0.124Y-0.02
G1X0.123Y-0.024
G1X0.121Y-0.026
G1X0.121Y-0.029
G1X0.119Y-0.033
G1X0.118Y-0.035
G1X0.117Y-0.038
G1X0.115Y-0.04
G1X0.114Y-0.044
G1X0.113Y-0.046
G1X0.112Y-0.049
G1X0.11Y-0.051
G1X0.108Y-0.054
G1X0.107Y-0.056
G1X0.106Y-0.059
G1X0.104Y-0.062
G1X0.102Y-0.064
G1X0.101Y-0.066
G1X0.098Y-0.068
G1X0.098Y-0.071
G1X0.095Y-0.073
G1X0.093Y-0.076
G1X0.092Y-0.077
G1X0.09Y-0.08
G1X0.088Y-0.082
G1X0.086Y-0.083
G1X0.083Y-0.086
G1X0.082Y-0.088
G1X0.08Y-0.09
G1X0.077Y-0.092
G1X0.076Y-0.093
G1X0.073Y-0.095
G1X0.071Y-0.098
G1X0.068Y-0.098
G1X0.066Y-0.101
G1X0.064Y-0.102
G1X0.062Y-0.104
G1X0.059Y-0.106
G1X0.056Y-0.107
G1X0.054Y-0.108
G1X0.051Y-0.11
G1X0.049Y-0.112
G1X0.046Y-0.113
G1X0.044Y-0.114
G1X0.04Y-0.115
G1X0.038Y-0.117
G1X0.035Y-0.118
G1X0.033Y-0.119
G1X0.029Y-0.121
G1X0.026Y-0.121
G1X0.024Y-0.123
G1X0.02Y-0.124
G1X0.018Y-0.124
G1X0.014Y-0.126
G1X0.011Y-0.126
G1X0.008Y-0.128
G1X0.005Y-0.128
G1Y-0.129
G1Y-5
; Cut @ 80 mm/min, 100% power
M8
G0X-79.998Y20
; Layer C05
G1X-10S100F80
G1Y5
G1Y0.129
G1X0.007Y0.128
G1X0.008Y0.128
G1X0.011Y0.126
G1X0.014Y0.126
G1X0.018Y0.124
G1X0.02Y0.124
G1X0.024Y0.123
G1X0.026Y0.121
G1X0.029Y0.121
G1X0.033Y0.119
G1X0.035Y0.118
G1X0.038Y0.117
G1X0.04Y0.115
G1X0.044Y0.114
G1X0.046Y0.113
G1X0.049Y0.112
G1X0.051Y0.11
G1X0.054Y0.108
G1X0.056Y0.107
G1X0.059Y0.106
G1X0.062Y0.104
G1X0.064Y0.102
G1X0.066Y0.101
G1X0.068Y0.098
G1X0.071Y0.098
G1X0.073Y0.095
G1X0.076Y0.093
G1X0.077Y0.092
G1X0.08Y0.09
G1X0.082Y0.088
G1X0.083Y0.086
G1X0.086Y0.083
G1X0.088Y0.082
G1X0.09Y0.08
G1X0.092Y0.077
G1X0.093Y0.076
G1X0.095Y0.073
G1X0.098Y0.071
G1X0.098Y0.068
G1X0.101Y0.066
G1X0.102Y0.064
G1X0.104Y0.062
G1X0.106Y0.059
G1X0.107Y0.056
G1X0.108Y0.054
G1X0.11Y0.051
G1X0.112Y0.049
G1X0.113Y0.046
G1X0.114Y0.044
G1X0.115Y0.04
G1X0.117Y0.038
G1X0.118Y0.035
G1X0.119Y0.033
G1X0.121Y0.029
G1X0.121Y0.026
G1X0.123Y0.024
G1X0.124Y0.02
G1X0.124Y0.018
G1X0.126Y0.014
G1X0.126Y0.011
G1X0.128Y0.008
G1X0.128Y0.005
G1X0.129
G1X0.129
G1X0.128
G1X0.128Y-0.013
G1X0.126Y-0.011
G1X0.126Y-0.014
G1X0.124Y-0.018
G1X0.124Y-0.02
G1X0.123Y-0.024
G1X0.121Y-0.026
G1X0.121Y-0.029
G1X0.119Y-0.033
G1X0.118Y-0.035
G1X0.117Y-0.038
G1X0.115Y-0.04
G1X0.114Y-0.044
G1X0.113Y-0.046
G1X0.112Y-0.049
G1X0.11Y-0.051
G1X0.108Y-0.054
G1X0.107Y-0.056
G1X0.106Y-0.059
G1X0.104Y-0.062
G1X0.102Y-0.064
G1X0.101Y-0.066
G1X0.098Y-0.068
G1X0.098Y-0.071
G1X0.095Y-0.073
G1X0.093Y-0.076
G1X0.092Y-0.077
G1X0.09Y-0.08
G1X0.088Y-0.082
G1X0.086Y-0.083
G1X0.083Y-0.086
G1X0.082Y-0.088
G1X0.08Y-0.09
G1X0.077Y-0.092
G1X0.076Y-0.093
G1X0.073Y-0.095
G1X0.071Y-0.098
G1X0.068Y-0.098
G1X0.066Y-0.101
G1X0.064Y-0.102
G1X0.062Y-0.104
G1X0.059Y-0.106
G1X0.056Y-0.107
G1X0.054Y-0.108
G1X0.051Y-0.11
G1X0.049Y-0.112
G1X0.046Y-0.113
G1X0.044Y-0.114
G1X0.04Y-0.115
G1X0.038Y-0.117
G1X0.035Y-0.118
G1X0.033Y-0.119
G1X0.029Y-0.121
G1X0.026Y-0.121
G1X0.024Y-0.123
G1X0.02Y-0.124
G1X0.018Y-0.124
G1X0.014Y-0.126
G1X0.011Y-0.126
G1X0.008Y-0.128
G1X0.005Y-0.128
G1Y-0.129
G1Y-5
; Cut @ 80 mm/min, 80% power
M8
G0X20.002Y0
; Layer C06
G1X-10S80
G1Y5
G1Y0.129
G1X0.007Y0.128
G1X0.008Y0.128
G1X0.011Y0.126
G1X0.014Y0.126
G1X0.018Y0.124
G1X0.02Y0.124
G1X0.024Y0.123
G1X0.026Y0.121
G1X0.029Y0.121
G1X0.033Y0.119
G1X0.035Y0.118
G1X0.038Y0.117
G1X0.04Y0.115
G1X0.044Y0.114
G1X0.046Y0.113
G1X0.049Y0.112
G1X0.051Y0.11
G1X0.054Y0.108
G1X0.056Y0.107
G1X0.059Y0.106
G1X0.062Y0.104
G1X0.064Y0.102
G1X0.066Y0.101
G1X0.068Y0.098
G1X0.071Y0.098
G1X0.073Y0.095
G1X0.076Y0.093
G1X0.077Y0.092
G1X0.08Y0.09
G1X0.082Y0.088
G1X0.083Y0.086
G1X0.086Y0.083
G1X0.088Y0.082
G1X0.09Y0.08
G1X0.092Y0.077
G1X0.093Y0.076
G1X0.095Y0.073
G1X0.098Y0.071
G1X0.098Y0.068
G1X0.101Y0.066
G1X0.102Y0.064
G1X0.104Y0.062
G1X0.106Y0.059
G1X0.107Y0.056
G1X0.108Y0.054
G1X0.11Y0.051
G1X0.112Y0.049
G1X0.113Y0.046
G1X0.114Y0.044
G1X0.115Y0.04
G1X0.117Y0.038
G1X0.118Y0.035
G1X0.119Y0.033
G1X0.121Y0.029
G1X0.121Y0.026
G1X0.123Y0.024
G1X0.124Y0.02
G1X0.124Y0.018
G1X0.126Y0.014
G1X0.126Y0.011
G1X0.128Y0.008
G1X0.128Y0.005
G1X0.129
G1X0.129
G1X0.128
G1X0.128Y-0.013
G1X0.126Y-0.011
G1X0.126Y-0.014
G1X0.124Y-0.018
G1X0.124Y-0.02
G1X0.123Y-0.024
G1X0.121Y-0.026
G1X0.121Y-0.029
G1X0.119Y-0.033
G1X0.118Y-0.035
G1X0.117Y-0.038
G1X0.115Y-0.04
G1X0.114Y-0.044
G1X0.113Y-0.046
G1X0.112Y-0.049
G1X0.11Y-0.051
G1X0.108Y-0.054
G1X0.107Y-0.056
G1X0.106Y-0.059
G1X0.104Y-0.062
G1X0.102Y-0.064
G1X0.101Y-0.066
G1X0.098Y-0.068
G1X0.098Y-0.071
G1X0.095Y-0.073
G1X0.093Y-0.076
G1X0.092Y-0.077
G1X0.09Y-0.08
G1X0.088Y-0.082
G1X0.086Y-0.083
G1X0.083Y-0.086
G1X0.082Y-0.088
G1X0.08Y-0.09
G1X0.077Y-0.092
G1X0.076Y-0.093
G1X0.073Y-0.095
G1X0.071Y-0.098
G1X0.068Y-0.098
G1X0.066Y-0.101
G1X0.064Y-0.102
G1X0.062Y-0.104
G1X0.059Y-0.106
G1X0.056Y-0.107
G1X0.054Y-0.108
G1X0.051Y-0.11
G1X0.049Y-0.112
G1X0.046Y-0.113
G1X0.044Y-0.114
G1X0.04Y-0.115
G1X0.038Y-0.117
G1X0.035Y-0.118
G1X0.033Y-0.119
G1X0.029Y-0.121
G1X0.026Y-0.121
G1X0.024Y-0.123
G1X0.02Y-0.124
G1X0.018Y-0.124
G1X0.014Y-0.126
G1X0.011Y-0.126
G1X0.008Y-0.128
G1X0.005Y-0.128
G1Y-0.129
G1Y-5
; Cut @ 80 mm/min, 60% power
M8
G0X20.002Y0
; Layer C07
G1X-10S60
G1Y5
G1Y0.129
G1X0.007Y0.128
G1X0.008Y0.128
G1X0.011Y0.126
G1X0.014Y0.126
G1X0.018Y0.124
G1X0.02Y0.124
G1X0.024Y0.123
G1X0.026Y0.121
G1X0.029Y0.121
G1X0.033Y0.119
G1X0.035Y0.118
G1X0.038Y0.117
G1X0.04Y0.115
G1X0.044Y0.114
G1X0.046Y0.113
G1X0.049Y0.112
G1X0.051Y0.11
G1X0.054Y0.108
G1X0.056Y0.107
G1X0.059Y0.106
G1X0.062Y0.104
G1X0.064Y0.102
G1X0.066Y0.101
G1X0.068Y0.098
G1X0.071Y0.098
G1X0.073Y0.095
G1X0.076Y0.093
G1X0.077Y0.092
G1X0.08Y0.09
G1X0.082Y0.088
G1X0.083Y0.086
G1X0.086Y0.083
G1X0.088Y0.082
G1X0.09Y0.08
G1X0.092Y0.077
G1X0.093Y0.076
G1X0.095Y0.073
G1X0.098Y0.071
G1X0.098Y0.068
G1X0.101Y0.066
G1X0.102Y0.064
G1X0.104Y0.062
G1X0.106Y0.059
G1X0.107Y0.056
G1X0.108Y0.054
G1X0.11Y0.051
G1X0.112Y0.049
G1X0.113Y0.046
G1X0.114Y0.044
G1X0.115Y0.04
G1X0.117Y0.038
G1X0.118Y0.035
G1X0.119Y0.033
G1X0.121Y0.029
G1X0.121Y0.026
G1X0.123Y0.024
G1X0.124Y0.02
G1X0.124Y0.018
G1X0.126Y0.014
G1X0.126Y0.011
G1X0.128Y0.008
G1X0.128Y0.005
G1X0.129
G1X0.129
G1X0.128
G1X0.128Y-0.013
G1X0.126Y-0.011
G1X0.126Y-0.014
G1X0.124Y-0.018
G1X0.124Y-0.02
G1X0.123Y-0.024
G1X0.121Y-0.026
G1X0.121Y-0.029
G1X0.119Y-0.033
G1X0.118Y-0.035
G1X0.117Y-0.038
G1X0.115Y-0.04
G1X0.114Y-0.044
G1X0.113Y-0.046
G1X0.112Y-0.049
G1X0.11Y-0.051
G1X0.108Y-0.054
G1X0.107Y-0.056
G1X0.106Y-0.059
G1X0.104Y-0.062
G1X0.102Y-0.064
G1X0.101Y-0.066
G1X0.098Y-0.068
G1X0.098Y-0.071
G1X0.095Y-0.073
G1X0.093Y-0.076
G1X0.092Y-0.077
G1X0.09Y-0.08
G1X0.088Y-0.082
G1X0.086Y-0.083
G1X0.083Y-0.086
G1X0.082Y-0.088
G1X0.08Y-0.09
G1X0.077Y-0.092
G1X0.076Y-0.093
G1X0.073Y-0.095
G1X0.071Y-0.098
G1X0.068Y-0.098
G1X0.066Y-0.101
G1X0.064Y-0.102
G1X0.062Y-0.104
G1X0.059Y-0.106
G1X0.056Y-0.107
G1X0.054Y-0.108
G1X0.051Y-0.11
G1X0.049Y-0.112
G1X0.046Y-0.113
G1X0.044Y-0.114
G1X0.04Y-0.115
G1X0.038Y-0.117
G1X0.035Y-0.118
G1X0.033Y-0.119
G1X0.029Y-0.121
G1X0.026Y-0.121
G1X0.024Y-0.123
G1X0.02Y-0.124
G1X0.018Y-0.124
G1X0.014Y-0.126
G1X0.011Y-0.126
G1X0.008Y-0.128
G1X0.005Y-0.128
G1Y-0.129
G1Y-5
; Cut @ 80 mm/min, 40% power
M8
G0X20.002Y0
; Layer C08
G1X-10S40
G1Y5
G1Y0.129
G1X0.006Y0.128
G1X0.009Y0.128
G1X0.011Y0.126
G1X0.014Y0.126
G1X0.018Y0.124
G1X0.02Y0.124
G1X0.024Y0.123
G1X0.026Y0.121
G1X0.029Y0.121
G1X0.033Y0.119
G1X0.035Y0.118
G1X0.038Y0.117
G1X0.04Y0.115
G1X0.044Y0.114
G1X0.046Y0.113
G1X0.049Y0.112
G1X0.051Y0.11
G1X0.054Y0.108
G1X0.056Y0.107
G1X0.059Y0.106
G1X0.062Y0.104
G1X0.064Y0.102
G1X0.066Y0.101
G1X0.068Y0.098
G1X0.071Y0.098
G1X0.073Y0.095
G1X0.076Y0.093
G1X0.077Y0.092
G1X0.08Y0.09
G1X0.082Y0.088
G1X0.083Y0.086
G1X0.086Y0.083
G1X0.088Y0.082
G1X0.09Y0.08
G1X0.092Y0.077
G1X0.093Y0.076
G1X0.095Y0.073
G1X0.098Y0.071
G1X0.098Y0.068
G1X0.101Y0.066
G1X0.102Y0.064
G1X0.104Y0.062
G1X0.106Y0.059
G1X0.107Y0.056
G1X0.108Y0.054
G1X0.11Y0.051
G1X0.112Y0.049
G1X0.113Y0.046
G1X0.114Y0.044
G1X0.115Y0.04
G1X0.117Y0.038
G1X0.118Y0.035
G1X0.119Y0.033
G1X0.121Y0.029
G1X0.121Y0.026
G1X0.123Y0.024
G1X0.124Y0.02
G1X0.124Y0.018
G1X0.126Y0.014
G1X0.126Y0.011
G1X0.128Y0.008
G1X0.128Y0.005
G1X0.129
G1X0.129
G1X0.128
G1X0.128Y-0.013
G1X0.126Y-0.011
G1X0.126Y-0.014
G1X0.124Y-0.018
G1X0.124Y-0.02
G1X0.123Y-0.024
G1X0.121Y-0.026
G1X0.121Y-0.029
G1X0.119Y-0.033
G1X0.118Y-0.035
G1X0.117Y-0.038
G1X0.115Y-0.04
G1X0.114Y-0.044
G1X0.113Y-0.046
G1X0.112Y-0.049
G1X0.11Y-0.051
G1X0.108Y-0.054
G1X0.107Y-0.056
G1X0.106Y-0.059
G1X0.104Y-0.062
G1X0.102Y-0.064
G1X0.101Y-0.066
G1X0.098Y-0.068
G1X0.098Y-0.071
G1X0.095Y-0.073
G1X0.093Y-0.076
G1X0.092Y-0.077
G1X0.09Y-0.08
G1X0.088Y-0.082
G1X0.086Y-0.083
G1X0.083Y-0.086
G1X0.082Y-0.088
G1X0.08Y-0.09
G1X0.077Y-0.092
G1X0.076Y-0.093
G1X0.073Y-0.095
G1X0.071Y-0.098
G1X0.068Y-0.098
G1X0.066Y-0.101
G1X0.064Y-0.102
G1X0.062Y-0.104
G1X0.059Y-0.106
G1X0.056Y-0.107
G1X0.054Y-0.108
G1X0.051Y-0.11
G1X0.049Y-0.112
G1X0.046Y-0.113
G1X0.044Y-0.114
G1X0.04Y-0.115
G1X0.038Y-0.117
G1X0.035Y-0.118
G1X0.033Y-0.119
G1X0.029Y-0.121
G1X0.026Y-0.121
G1X0.024Y-0.123
G1X0.02Y-0.124
G1X0.018Y-0.124
G1X0.014Y-0.126
G1X0.011Y-0.126
G1X0.008Y-0.128
G1X0.005Y-0.128
G1Y-0.129
G1Y-5
; Cut @ 80 mm/min, 20% power
M8
G0X20.002Y0
; Layer C09
G1X-10S20
G1Y5
G1Y0.129
G1X0.006Y0.128
G1X0.009Y0.128
G1X0.011Y0.126
G1X0.014Y0.126
G1X0.018Y0.124
G1X0.02Y0.124
G1X0.024Y0.123
G1X0.026Y0.121
G1X0.029Y0.121
G1X0.033Y0.119
G1X0.035Y0.118
G1X0.038Y0.117
G1X0.04Y0.115
G1X0.044Y0.114
G1X0.046Y0.113
G1X0.049Y0.112
G1X0.051Y0.11
G1X0.054Y0.108
G1X0.056Y0.107
G1X0.059Y0.106
G1X0.062Y0.104
G1X0.064Y0.102
G1X0.066Y0.101
G1X0.068Y0.098
G1X0.071Y0.098
G1X0.073Y0.095
G1X0.076Y0.093
G1X0.077Y0.092
G1X0.08Y0.09
G1X0.082Y0.088
G1X0.083Y0.086
G1X0.086Y0.083
G1X0.088Y0.082
G1X0.09Y0.08
G1X0.092Y0.077
G1X0.093Y0.076
G1X0.095Y0.073
G1X0.098Y0.071
G1X0.098Y0.068
G1X0.101Y0.066
G1X0.102Y0.064
G1X0.104Y0.062
G1X0.106Y0.059
G1X0.107Y0.056
G1X0.108Y0.054
G1X0.11Y0.051
G1X0.112Y0.049
G1X0.113Y0.046
G1X0.114Y0.044
G1X0.115Y0.04
G1X0.117Y0.038
G1X0.118Y0.035
G1X0.119Y0.033
G1X0.121Y0.029
G1X0.121Y0.026
G1X0.123Y0.024
G1X0.124Y0.02
G1X0.124Y0.018
G1X0.126Y0.014
G1X0.126Y0.011
G1X0.128Y0.008
G1X0.128Y0.005
G1X0.129
G1X0.129
G1X0.128
G1X0.128Y-0.013
G1X0.126Y-0.011
G1X0.126Y-0.014
G1X0.124Y-0.018
G1X0.124Y-0.02
G1X0.123Y-0.024
G1X0.121Y-0.026
G1X0.121Y-0.029
G1X0.119Y-0.033
G1X0.118Y-0.035
G1X0.117Y-0.038
G1X0.115Y-0.04
G1X0.114Y-0.044
G1X0.113Y-0.046
G1X0.112Y-0.049
G1X0.11Y-0.051
G1X0.108Y-0.054
G1X0.107Y-0.056
G1X0.106Y-0.059
G1X0.104Y-0.062
G1X0.102Y-0.064
G1X0.101Y-0.066
G1X0.098Y-0.068
G1X0.098Y-0.071
G1X0.095Y-0.073
G1X0.093Y-0.076
G1X0.092Y-0.077
G1X0.09Y-0.08
G1X0.088Y-0.082
G1X0.086Y-0.083
G1X0.083Y-0.086
G1X0.082Y-0.088
G1X0.08Y-0.09
G1X0.077Y-0.092
G1X0.076Y-0.093
G1X0.073Y-0.095
G1X0.071Y-0.098
G1X0.068Y-0.098
G1X0.066Y-0.101
G1X0.064Y-0.102
G1X0.062Y-0.104
G1X0.059Y-0.106
G1X0.056Y-0.107
G1X0.054Y-0.108
G1X0.051Y-0.11
G1X0.049Y-0.112
G1X0.046Y-0.113
G1X0.044Y-0.114
G1X0.04Y-0.115
G1X0.038Y-0.117
G1X0.035Y-0.118
G1X0.033Y-0.119
G1X0.029Y-0.121
G1X0.026Y-0.121
G1X0.024Y-0.123
G1X0.02Y-0.124
G1X0.018Y-0.124
G1X0.014Y-0.126
G1X0.011Y-0.126
G1X0.008Y-0.128
G1X0.005Y-0.128
G1Y-0.129
G1Y-5
; Cut @ 60 mm/min, 100% power
M8
G0X-79.998Y20
; Layer C10
G1X-10S100F60
G1Y5
G1Y0.129
G1X0.007Y0.128
G1X0.008Y0.128
G1X0.011Y0.126
G1X0.014Y0.126
G1X0.018Y0.124
G1X0.02Y0.124
G1X0.024Y0.123
G1X0.026Y0.121
G1X0.029Y0.121
G1X0.033Y0.119
G1X0.035Y0.118
G1X0.038Y0.117
G1X0.04Y0.115
G1X0.044Y0.114
G1X0.046Y0.113
G1X0.049Y0.112
G1X0.051Y0.11
G1X0.054Y0.108
G1X0.056Y0.107
G1X0.059Y0.106
G1X0.062Y0.104
G1X0.064Y0.102
G1X0.066Y0.101
G1X0.068Y0.098
G1X0.071Y0.098
G1X0.073Y0.095
G1X0.076Y0.093
G1X0.077Y0.092
G1X0.08Y0.09
G1X0.082Y0.088
G1X0.083Y0.086
G1X0.086Y0.083
G1X0.088Y0.082
G1X0.09Y0.08
G1X0.092Y0.077
G1X0.093Y0.076
G1X0.095Y0.073
G1X0.098Y0.071
G1X0.098Y0.068
G1X0.101Y0.066
G1X0.102Y0.064
G1X0.104Y0.062
G1X0.106Y0.059
G1X0.107Y0.056
G1X0.108Y0.054
G1X0.11Y0.051
G1X0.112Y0.049
G1X0.113Y0.046
G1X0.114Y0.044
G1X0.115Y0.04
G1X0.117Y0.038
G1X0.118Y0.035
G1X0.119Y0.033
G1X0.121Y0.029
G1X0.121Y0.026
G1X0.123Y0.024
G1X0.124Y0.02
G1X0.124Y0.018
G1X0.126Y0.014
G1X0.126Y0.011
G1X0.128Y0.008
G1X0.128Y0.005
G1X0.129
G1X0.129
G1X0.128
G1X0.128Y-0.013
G1X0.126Y-0.011
G1X0.126Y-0.014
G1X0.124Y-0.018
G1X0.124Y-0.02
G1X0.123Y-0.024
G1X0.121Y-0.026
G1X0.121Y-0.029
G1X0.119Y-0.033
G1X0.118Y-0.035
G1X0.117Y-0.038
G1X0.115Y-0.04
G1X0.114Y-0.044
G1X0.113Y-0.046
G1X0.112Y-0.049
G1X0.11Y-0.051
G1X0.108Y-0.054
G1X0.107Y-0.056
G1X0.106Y-0.059
G1X0.104Y-0.062
G1X0.102Y-0.064
G1X0.101Y-0.066
G1X0.098Y-0.068
G1X0.098Y-0.071
G1X0.095Y-0.073
G1X0.093Y-0.076
G1X0.092Y-0.077
G1X0.09Y-0.08
G1X0.088Y-0.082
G1X0.086Y-0.083
G1X0.083Y-0.086
G1X0.082Y-0.088
G1X0.08Y-0.09
G1X0.077Y-0.092
G1X0.076Y-0.093
G1X0.073Y-0.095
G1X0.071Y-0.098
G1X0.068Y-0.098
G1X0.066Y-0.101
G1X0.064Y-0.102
G1X0.062Y-0.104
G1X0.059Y-0.106
G1X0.056Y-0.107
G1X0.054Y-0.108
G1X0.051Y-0.11
G1X0.049Y-0.112
G1X0.046Y-0.113
G1X0.044Y-0.114
G1X0.04Y-0.115
G1X0.038Y-0.117
G1X0.035Y-0.118
G1X0.033Y-0.119
G1X0.029Y-0.121
G1X0.026Y-0.121
G1X0.024Y-0.123
G1X0.02Y-0.124
G1X0.018Y-0.124
G1X0.014Y-0.126
G1X0.011Y-0.126
G1X0.008Y-0.128
G1X0.005Y-0.128
G1Y-0.129
G1Y-5
; Cut @ 60 mm/min, 80% power
M8
G0X20.002Y0
; Layer C11
G1X-10S80
G1Y5
G1Y0.129
G1X0.007Y0.128
G1X0.008Y0.128
G1X0.011Y0.126
G1X0.014Y0.126
G1X0.018Y0.124
G1X0.02Y0.124
G1X0.024Y0.123
G1X0.026Y0.121
G1X0.029Y0.121
G1X0.033Y0.119
G1X0.035Y0.118
G1X0.038Y0.117
G1X0.04Y0.115
G1X0.044Y0.114
G1X0.046Y0.113
G1X0.049Y0.112
G1X0.051Y0.11
G1X0.054Y0.108
G1X0.056Y0.107
G1X0.059Y0.106
G1X0.062Y0.104
G1X0.064Y0.102
G1X0.066Y0.101
G1X0.068Y0.098
G1X0.071Y0.098
G1X0.073Y0.095
G1X0.076Y0.093
G1X0.077Y0.092
G1X0.08Y0.09
G1X0.082Y0.088
G1X0.083Y0.086
G1X0.086Y0.083
G1X0.088Y0.082
G1X0.09Y0.08
G1X0.092Y0.077
G1X0.093Y0.076
G1X0.095Y0.073
G1X0.098Y0.071
G1X0.098Y0.068
G1X0.101Y0.066
G1X0.102Y0.064
G1X0.104Y0.062
G1X0.106Y0.059
G1X0.107Y0.056
G1X0.108Y0.054
G1X0.11Y0.051
G1X0.112Y0.049
G1X0.113Y0.046
G1X0.114Y0.044
G1X0.115Y0.04
G1X0.117Y0.038
G1X0.118Y0.035
G1X0.119Y0.033
G1X0.121Y0.029
G1X0.121Y0.026
G1X0.123Y0.024
G1X0.124Y0.02
G1X0.124Y0.018
G1X0.126Y0.014
G1X0.126Y0.011
G1X0.128Y0.008
G1X0.128Y0.005
G1X0.129
G1X0.129
G1X0.128
G1X0.128Y-0.013
G1X0.126Y-0.011
G1X0.126Y-0.014
G1X0.124Y-0.018
G1X0.124Y-0.02
G1X0.123Y-0.024
G1X0.121Y-0.026
G1X0.121Y-0.029
G1X0.119Y-0.033
G1X0.118Y-0.035
G1X0.117Y-0.038
G1X0.115Y-0.04
G1X0.114Y-0.044
G1X0.113Y-0.046
G1X0.112Y-0.049
G1X0.11Y-0.051
G1X0.108Y-0.054
G1X0.107Y-0.056
G1X0.106Y-0.059
G1X0.104Y-0.062
G1X0.102Y-0.064
G1X0.101Y-0.066
G1X0.098Y-0.068
G1X0.098Y-0.071
G1X0.095Y-0.073
G1X0.093Y-0.076
G1X0.092Y-0.077
G1X0.09Y-0.08
G1X0.088Y-0.082
G1X0.086Y-0.083
G1X0.083Y-0.086
G1X0.082Y-0.088
G1X0.08Y-0.09
G1X0.077Y-0.092
G1X0.076Y-0.093
G1X0.073Y-0.095
G1X0.071Y-0.098
G1X0.068Y-0.098
G1X0.066Y-0.101
G1X0.064Y-0.102
G1X0.062Y-0.104
G1X0.059Y-0.106
G1X0.056Y-0.107
G1X0.054Y-0.108
G1X0.051Y-0.11
G1X0.049Y-0.112
G1X0.046Y-0.113
G1X0.044Y-0.114
G1X0.04Y-0.115
G1X0.038Y-0.117
G1X0.035Y-0.118
G1X0.033Y-0.119
G1X0.029Y-0.121
G1X0.026Y-0.121
G1X0.024Y-0.123
G1X0.02Y-0.124
G1X0.018Y-0.124
G1X0.014Y-0.126
G1X0.011Y-0.126
G1X0.008Y-0.128
G1X0.005Y-0.128
G1Y-0.129
G1Y-5
; Cut @ 60 mm/min, 60% power
M8
G0X20.002Y0
; Layer C12
G1X-10S60
G1Y5
G1Y0.129
G1X0.007Y0.128
G1X0.008Y0.128
G1X0.011Y0.126
G1X0.014Y0.126
G1X0.018Y0.124
G1X0.02Y0.124
G1X0.024Y0.123
G1X0.026Y0.121
G1X0.029Y0.121
G1X0.033Y0.119
G1X0.035Y0.118
G1X0.038Y0.117
G1X0.04Y0.115
G1X0.044Y0.114
G1X0.046Y0.113
G1X0.049Y0.112
G1X0.051Y0.11
G1X0.054Y0.108
G1X0.056Y0.107
G1X0.059Y0.106
G1X0.062Y0.104
G1X0.064Y0.102
G1X0.066Y0.101
G1X0.068Y0.098
G1X0.071Y0.098
G1X0.073Y0.095
G1X0.076Y0.093
G1X0.077Y0.092
G1X0.08Y0.09
G1X0.082Y0.088
G1X0.083Y0.086
G1X0.086Y0.083
G1X0.088Y0.082
G1X0.09Y0.08
G1X0.092Y0.077
G1X0.093Y0.076
G1X0.095Y0.073
G1X0.098Y0.071
G1X0.098Y0.068
G1X0.101Y0.066
G1X0.102Y0.064
G1X0.104Y0.062
G1X0.106Y0.059
G1X0.107Y0.056
G1X0.108Y0.054
G1X0.11Y0.051
G1X0.112Y0.049
G1X0.113Y0.046
G1X0.114Y0.044
G1X0.115Y0.04
G1X0.117Y0.038
G1X0.118Y0.035
G1X0.119Y0.033
G1X0.121Y0.029
G1X0.121Y0.026
G1X0.123Y0.024
G1X0.124Y0.02
G1X0.124Y0.018
G1X0.126Y0.014
G1X0.126Y0.011
G1X0.128Y0.008
G1X0.128Y0.005
G1X0.129
G1X0.129
G1X0.128
G1X0.128Y-0.013
G1X0.126Y-0.011
G1X0.126Y-0.014
G1X0.124Y-0.018
G1X0.124Y-0.02
G1X0.123Y-0.024
G1X0.121Y-0.026
G1X0.121Y-0.029
G1X0.119Y-0.033
G1X0.118Y-0.035
G1X0.117Y-0.038
G1X0.115Y-0.04
G1X0.114Y-0.044
G1X0.113Y-0.046
G1X0.112Y-0.049
G1X0.11Y-0.051
G1X0.108Y-0.054
G1X0.107Y-0.056
G1X0.106Y-0.059
G1X0.104Y-0.062
G1X0.102Y-0.064
G1X0.101Y-0.066
G1X0.098Y-0.068
G1X0.098Y-0.071
G1X0.095Y-0.073
G1X0.093Y-0.076
G1X0.092Y-0.077
G1X0.09Y-0.08
G1X0.088Y-0.082
G1X0.086Y-0.083
G1X0.083Y-0.086
G1X0.082Y-0.088
G1X0.08Y-0.09
G1X0.077Y-0.092
G1X0.076Y-0.093
G1X0.073Y-0.095
G1X0.071Y-0.098
G1X0.068Y-0.098
G1X0.066Y-0.101
G1X0.064Y-0.102
G1X0.062Y-0.104
G1X0.059Y-0.106
G1X0.056Y-0.107
G1X0.054Y-0.108
G1X0.051Y-0.11
G1X0.049Y-0.112
G1X0.046Y-0.113
G1X0.044Y-0.114
G1X0.04Y-0.115
G1X0.038Y-0.117
G1X0.035Y-0.118
G1X0.033Y-0.119
G1X0.029Y-0.121
G1X0.026Y-0.121
G1X0.024Y-0.123
G1X0.02Y-0.124
G1X0.018Y-0.124
G1X0.014Y-0.126
G1X0.011Y-0.126
G1X0.008Y-0.128
G1X0.005Y-0.128
G1Y-0.129
G1Y-5
; Cut @ 60 mm/min, 40% power
M8
G0X20.002Y0
; Layer C13
G1X-10S40
G1Y5
G1Y0.129
G1X0.006Y0.128
G1X0.009Y0.128
G1X0.011Y0.126
G1X0.014Y0.126
G1X0.018Y0.124
G1X0.02Y0.124
G1X0.024Y0.123
G1X0.026Y0.121
G1X0.029Y0.121
G1X0.033Y0.119
G1X0.035Y0.118
G1X0.038Y0.117
G1X0.04Y0.115
G1X0.044Y0.114
G1X0.046Y0.113
G1X0.049Y0.112
G1X0.051Y0.11
G1X0.054Y0.108
G1X0.056Y0.107
G1X0.059Y0.106
G1X0.062Y0.104
G1X0.064Y0.102
G1X0.066Y0.101
G1X0.068Y0.098
G1X0.071Y0.098
G1X0.073Y0.095
G1X0.076Y0.093
G1X0.077Y0.092
G1X0.08Y0.09
G1X0.082Y0.088
G1X0.083Y0.086
G1X0.086Y0.083
G1X0.088Y0.082
G1X0.09Y0.08
G1X0.092Y0.077
G1X0.093Y0.076
G1X0.095Y0.073
G1X0.098Y0.071
G1X0.098Y0.068
G1X0.101Y0.066
G1X0.102Y0.064
G1X0.104Y0.062
G1X0.106Y0.059
G1X0.107Y0.056
G1X0.108Y0.054
G1X0.11Y0.051
G1X0.112Y0.049
G1X0.113Y0.046
G1X0.114Y0.044
G1X0.115Y0.04
G1X0.117Y0.038
G1X0.118Y0.035
G1X0.119Y0.033
G1X0.121Y0.029
G1X0.121Y0.026
G1X0.123Y0.024
G1X0.124Y0.02
G1X0.124Y0.018
G1X0.126Y0.014
G1X0.126Y0.011
G1X0.128Y0.008
G1X0.128Y0.005
G1X0.129
G1X0.129
G1X0.128
G1X0.128Y-0.013
G1X0.126Y-0.011
G1X0.126Y-0.014
G1X0.124Y-0.018
G1X0.124Y-0.02
G1X0.123Y-0.024
G1X0.121Y-0.026
G1X0.121Y-0.029
G1X0.119Y-0.033
G1X0.118Y-0.035
G1X0.117Y-0.038
G1X0.115Y-0.04
G1X0.114Y-0.044
G1X0.113Y-0.046
G1X0.112Y-0.049
G1X0.11Y-0.051
G1X0.108Y-0.054
G1X0.107Y-0.056
G1X0.106Y-0.059
G1X0.104Y-0.062
G1X0.102Y-0.064
G1X0.101Y-0.066
G1X0.098Y-0.068
G1X0.098Y-0.071
G1X0.095Y-0.073
G1X0.093Y-0.076
G1X0.092Y-0.077
G1X0.09Y-0.08
G1X0.088Y-0.082
G1X0.086Y-0.083
G1X0.083Y-0.086
G1X0.082Y-0.088
G1X0.08Y-0.09
G1X0.077Y-0.092
G1X0.076Y-0.093
G1X0.073Y-0.095
G1X0.071Y-0.098
G1X0.068Y-0.098
G1X0.066Y-0.101
G1X0.064Y-0.102
G1X0.062Y-0.104
G1X0.059Y-0.106
G1X0.056Y-0.107
G1X0.054Y-0.108
G1X0.051Y-0.11
G1X0.049Y-0.112
G1X0.046Y-0.113
G1X0.044Y-0.114
G1X0.04Y-0.115
G1X0.038Y-0.117
G1X0.035Y-0.118
G1X0.033Y-0.119
G1X0.029Y-0.121
G1X0.026Y-0.121
G1X0.024Y-0.123
G1X0.02Y-0.124
G1X0.018Y-0.124
G1X0.014Y-0.126
G1X0.011Y-0.126
G1X0.008Y-0.128
G1X0.005Y-0.128
G1Y-0.129
G1Y-5
; Cut @ 60 mm/min, 20% power
M8
G0X20.002Y0
; Layer C14
G1X-10S20
G1Y5
G1Y0.129
G1X0.006Y0.128
G1X0.009Y0.128
G1X0.011Y0.126
G1X0.014Y0.126
G1X0.018Y0.124
G1X0.02Y0.124
G1X0.024Y0.123
G1X0.026Y0.121
G1X0.029Y0.121
G1X0.033Y0.119
G1X0.035Y0.118
G1X0.038Y0.117
G1X0.04Y0.115
G1X0.044Y0.114
G1X0.046Y0.113
G1X0.049Y0.112
G1X0.051Y0.11
G1X0.054Y0.108
G1X0.056Y0.107
G1X0.059Y0.106
G1X0.062Y0.104
G1X0.064Y0.102
G1X0.066Y0.101
G1X0.068Y0.098
G1X0.071Y0.098
G1X0.073Y0.095
G1X0.076Y0.093
G1X0.077Y0.092
G1X0.08Y0.09
G1X0.082Y0.088
G1X0.083Y0.086
G1X0.086Y0.083
G1X0.088Y0.082
G1X0.09Y0.08
G1X0.092Y0.077
G1X0.093Y0.076
G1X0.095Y0.073
G1X0.098Y0.071
G1X0.098Y0.068
G1X0.101Y0.066
G1X0.102Y0.064
G1X0.104Y0.062
G1X0.106Y0.059
G1X0.107Y0.056
G1X0.108Y0.054
G1X0.11Y0.051
G1X0.112Y0.049
G1X0.113Y0.046
G1X0.114Y0.044
G1X0.115Y0.04
G1X0.117Y0.038
G1X0.118Y0.035
G1X0.119Y0.033
G1X0.121Y0.029
G1X0.121Y0.026
G1X0.123Y0.024
G1X0.124Y0.02
G1X0.124Y0.018
G1X0.126Y0.014
G1X0.126Y0.011
G1X0.128Y0.008
G1X0.128Y0.005
G1X0.129
G1X0.129
G1X0.128
G1X0.128Y-0.013
G1X0.126Y-0.011
G1X0.126Y-0.014
G1X0.124Y-0.018
G1X0.124Y-0.02
G1X0.123Y-0.024
G1X0.121Y-0.026
G1X0.121Y-0.029
G1X0.119Y-0.033
G1X0.118Y-0.035
G1X0.117Y-0.038
G1X0.115Y-0.04
G1X0.114Y-0.044
G1X0.113Y-0.046
G1X0.112Y-0.049
G1X0.11Y-0.051
G1X0.108Y-0.054
G1X0.107Y-0.056
G1X0.106Y-0.059
G1X0.104Y-0.062
G1X0.102Y-0.064
G1X0.101Y-0.066
G1X0.098Y-0.068
G1X0.098Y-0.071
G1X0.095Y-0.073
G1X0.093Y-0.076
G1X0.092Y-0.077
G1X0.09Y-0.08
G1X0.088Y-0.082
G1X0.086Y-0.083
G1X0.083Y-0.086
G1X0.082Y-0.088
G1X0.08Y-0.09
G1X0.077Y-0.092
G1X0.076Y-0.093
G1X0.073Y-0.095
G1X0.071Y-0.098
G1X0.068Y-0.098
G1X0.066Y-0.101
G1X0.064Y-0.102
G1X0.062Y-0.104
G1X0.059Y-0.106
G1X0.056Y-0.107
G1X0.054Y-0.108
G1X0.051Y-0.11
G1X0.049Y-0.112
G1X0.046Y-0.113
G1X0.044Y-0.114
G1X0.04Y-0.115
G1X0.038Y-0.117
G1X0.035Y-0.118
G1X0.033Y-0.119
G1X0.029Y-0.121
G1X0.026Y-0.121
G1X0.024Y-0.123
G1X0.02Y-0.124
G1X0.018Y-0.124
G1X0.014Y-0.126
G1X0.011Y-0.126
G1X0.008Y-0.128
G1X0.005Y-0.128
G1Y-0.129
G1Y-5
; Cut @ 40 mm/min, 100% power
M8
G0X-79.998Y20
; Layer C15
G1X-10S100F40
G1Y5
G1Y0.129
G1X0.006Y0.128
G1X0.009Y0.128
G1X0.011Y0.126
G1X0.014Y0.126
G1X0.018Y0.124
G1X0.02Y0.124
G1X0.024Y0.123
G1X0.026Y0.121
G1X0.029Y0.121
G1X0.033Y0.119
G1X0.035Y0.118
G1X0.038Y0.117
G1X0.04Y0.115
G1X0.044Y0.114
G1X0.046Y0.113
G1X0.049Y0.112
G1X0.051Y0.11
G1X0.054Y0.108
G1X0.056Y0.107
G1X0.059Y0.106
G1X0.062Y0.104
G1X0.064Y0.102
G1X0.066Y0.101
G1X0.068Y0.098
G1X0.071Y0.098
G1X0.073Y0.095
G1X0.076Y0.093
G1X0.077Y0.092
G1X0.08Y0.09
G1X0.082Y0.088
G1X0.083Y0.086
G1X0.086Y0.083
G1X0.088Y0.082
G1X0.09Y0.08
G1X0.092Y0.077
G1X0.093Y0.076
G1X0.095Y0.073
G1X0.098Y0.071
G1X0.098Y0.068
G1X0.101Y0.066
G1X0.102Y0.064
G1X0.104Y0.062
G1X0.106Y0.059
G1X0.107Y0.056
G1X0.108Y0.054
G1X0.11Y0.051
G1X0.112Y0.049
G1X0.113Y0.046
G1X0.114Y0.044
G1X0.115Y0.04
G1X0.117Y0.038
G1X0.118Y0.035
G1X0.119Y0.033
G1X0.121Y0.029
G1X0.121Y0.026
G1X0.123Y0.024
G1X0.124Y0.02
G1X0.124Y0.018
G1X0.126Y0.014
G1X0.126Y0.011
G1X0.128Y0.008
G1X0.128Y0.005
G1X0.129
G1X0.129
G1X0.128
G1X0.128Y-0.013
G1X0.126Y-0.011
G1X0.126Y-0.014
G1X0.124Y-0.018
G1X0.124Y-0.02
G1X0.123Y-0.024
G1X0.121Y-0.026
G1X0.121Y-0.029
G1X0.119Y-0.033
G1X0.118Y-0.035
G1X0.117Y-0.038
G1X0.115Y-0.04
G1X0.114Y-0.044
G1X0.113Y-0.046
G1X0.112Y-0.049
G1X0.11Y-0.051
G1X0.108Y-0.054
G1X0.107Y-0.056
G1X0.106Y-0.059
G1X0.104Y-0.062
G1X0.102Y-0.064
G1X0.101Y-0.066
G1X0.098Y-0.068
G1X0.098Y-0.071
G1X0.095Y-0.073
G1X0.093Y-0.076
G1X0.092Y-0.077
G1X0.09Y-0.08
G1X0.088Y-0.082
G1X0.086Y-0.083
G1X0.083Y-0.086
G1X0.082Y-0.088
G1X0.08Y-0.09
G1X0.077Y-0.092
G1X0.076Y-0.093
G1X0.073Y-0.095
G1X0.071Y-0.098
G1X0.068Y-0.098
G1X0.066Y-0.101
G1X0.064Y-0.102
G1X0.062Y-0.104
G1X0.059Y-0.106
G1X0.056Y-0.107
G1X0.054Y-0.108
G1X0.051Y-0.11
G1X0.049Y-0.112
G1X0.046Y-0.113
G1X0.044Y-0.114
G1X0.04Y-0.115
G1X0.038Y-0.117
G1X0.035Y-0.118
G1X0.033Y-0.119
G1X0.029Y-0.121
G1X0.026Y-0.121
G1X0.024Y-0.123
G1X0.02Y-0.124
G1X0.018Y-0.124
G1X0.014Y-0.126
G1X0.011Y-0.126
G1X0.008Y-0.128
G1X0.005Y-0.128
G1Y-0.129
G1Y-5
; Cut @ 40 mm/min, 80% power
M8
G0X20.002Y0
; Layer C16
G1X-10S80
G1Y5
G1Y0.129
G1X0.006Y0.128
G1X0.009Y0.128
G1X0.011Y0.126
G1X0.014Y0.126
G1X0.018Y0.124
G1X0.02Y0.124
G1X0.024Y0.123
G1X0.026Y0.121
G1X0.029Y0.121
G1X0.033Y0.119
G1X0.035Y0.118
G1X0.038Y0.117
G1X0.04Y0.115
G1X0.044Y0.114
G1X0.046Y0.113
G1X0.049Y0.112
G1X0.051Y0.11
G1X0.054Y0.108
G1X0.056Y0.107
G1X0.059Y0.106
G1X0.062Y0.104
G1X0.064Y0.102
G1X0.066Y0.101
G1X0.068Y0.098
G1X0.071Y0.098
G1X0.073Y0.095
G1X0.076Y0.093
G1X0.077Y0.092
G1X0.08Y0.09
G1X0.082Y0.088
G1X0.083Y0.086
G1X0.086Y0.083
G1X0.088Y0.082
G1X0.09Y0.08
G1X0.092Y0.077
G1X0.093Y0.076
G1X0.095Y0.073
G1X0.098Y0.071
G1X0.098Y0.068
G1X0.101Y0.066
G1X0.102Y0.064
G1X0.104Y0.062
G1X0.106Y0.059
G1X0.107Y0.056
G1X0.108Y0.054
G1X0.11Y0.051
G1X0.112Y0.049
G1X0.113Y0.046
G1X0.114Y0.044
G1X0.115Y0.04
G1X0.117Y0.038
G1X0.118Y0.035
G1X0.119Y0.033
G1X0.121Y0.029
G1X0.121Y0.026
G1X0.123Y0.024
G1X0.124Y0.02
G1X0.124Y0.018
G1X0.126Y0.014
G1X0.126Y0.011
G1X0.128Y0.008
G1X0.128Y0.005
G1X0.129
G1X0.129
G1X0.128
G1X0.128Y-0.013
G1X0.126Y-0.011
G1X0.126Y-0.014
G1X0.124Y-0.018
G1X0.124Y-0.02
G1X0.123Y-0.024
G1X0.121Y-0.026
G1X0.121Y-0.029
G1X0.119Y-0.033
G1X0.118Y-0.035
G1X0.117Y-0.038
G1X0.115Y-0.04
G1X0.114Y-0.044
G1X0.113Y-0.046
G1X0.112Y-0.049
G1X0.11Y-0.051
G1X0.108Y-0.054
G1X0.107Y-0.056
G1X0.106Y-0.059
G1X0.104Y-0.062
G1X0.102Y-0.064
G1X0.101Y-0.066
G1X0.098Y-0.068
G1X0.098Y-0.071
G1X0.095Y-0.073
G1X0.093Y-0.076
G1X0.092Y-0.077
G1X0.09Y-0.08
G1X0.088Y-0.082
G1X0.086Y-0.083
G1X0.083Y-0.086
G1X0.082Y-0.088
G1X0.08Y-0.09
G1X0.077Y-0.092
G1X0.076Y-0.093
G1X0.073Y-0.095
G1X0.071Y-0.098
G1X0.068Y-0.098
G1X0.066Y-0.101
G1X0.064Y-0.102
G1X0.062Y-0.104
G1X0.059Y-0.106
G1X0.056Y-0.107
G1X0.054Y-0.108
G1X0.051Y-0.11
G1X0.049Y-0.112
G1X0.046Y-0.113
G1X0.044Y-0.114
G1X0.04Y-0.115
G1X0.038Y-0.117
G1X0.035Y-0.118
G1X0.033Y-0.119
G1X0.029Y-0.121
G1X0.026Y-0.121
G1X0.024Y-0.123
G1X0.02Y-0.124
G1X0.018Y-0.124
G1X0.014Y-0.126
G1X0.011Y-0.126
G1X0.008Y-0.128
G1X0.005Y-0.128
G1Y-0.129
G1Y-5
; Cut @ 40 mm/min, 60% power
M8
G0X20.002Y0
; Layer C17
G1X-10S60
G1Y5
G1Y0.129
G1X0.006Y0.128
G1X0.009Y0.128
G1X0.011Y0.126
G1X0.014Y0.126
G1X0.018Y0.124
G1X0.02Y0.124
G1X0.024Y0.123
G1X0.026Y0.121
G1X0.029Y0.121
G1X0.033Y0.119
G1X0.035Y0.118
G1X0.038Y0.117
G1X0.04Y0.115
G1X0.044Y0.114
G1X0.046Y0.113
G1X0.049Y0.112
G1X0.051Y0.11
G1X0.054Y0.108
G1X0.056Y0.107
G1X0.059Y0.106
G1X0.062Y0.104
G1X0.064Y0.102
G1X0.066Y0.101
G1X0.068Y0.098
G1X0.071Y0.098
G1X0.073Y0.095
G1X0.076Y0.093
G1X0.077Y0.092
G1X0.08Y0.09
G1X0.082Y0.088
G1X0.083Y0.086
G1X0.086Y0.083
G1X0.088Y0.082
G1X0.09Y0.08
G1X0.092Y0.077
G1X0.093Y0.076
G1X0.095Y0.073
G1X0.098Y0.071
G1X0.098Y0.068
G1X0.101Y0.066
G1X0.102Y0.064
G1X0.104Y0.062
G1X0.106Y0.059
G1X0.107Y0.056
G1X0.108Y0.054
G1X0.11Y0.051
G1X0.112Y0.049
G1X0.113Y0.046
G1X0.114Y0.044
G1X0.115Y0.04
G1X0.117Y0.038
G1X0.118Y0.035
G1X0.119Y0.033
G1X0.121Y0.029
G1X0.121Y0.026
G1X0.123Y0.024
G1X0.124Y0.02
G1X0.124Y0.018
G1X0.126Y0.014
G1X0.126Y0.011
G1X0.128Y0.008
G1X0.128Y0.005
G1X0.129
G1X0.129
G1X0.128
G1X0.128Y-0.013
G1X0.126Y-0.011
G1X0.126Y-0.014
G1X0.124Y-0.018
G1X0.124Y-0.02
G1X0.123Y-0.024
G1X0.121Y-0.026
G1X0.121Y-0.029
G1X0.119Y-0.033
G1X0.118Y-0.035
G1X0.117Y-0.038
G1X0.115Y-0.04
G1X0.114Y-0.044
G1X0.113Y-0.046
G1X0.112Y-0.049
G1X0.11Y-0.051
G1X0.108Y-0.054
G1X0.107Y-0.056
G1X0.106Y-0.059
G1X0.104Y-0.062
G1X0.102Y-0.064
G1X0.101Y-0.066
G1X0.098Y-0.068
G1X0.098Y-0.071
G1X0.095Y-0.073
G1X0.093Y-0.076
G1X0.092Y-0.077
G1X0.09Y-0.08
G1X0.088Y-0.082
G1X0.086Y-0.083
G1X0.083Y-0.086
G1X0.082Y-0.088
G1X0.08Y-0.09
G1X0.077Y-0.092
G1X0.076Y-0.093
G1X0.073Y-0.095
G1X0.071Y-0.098
G1X0.068Y-0.098
G1X0.066Y-0.101
G1X0.064Y-0.102
G1X0.062Y-0.104
G1X0.059Y-0.106
G1X0.056Y-0.107
G1X0.054Y-0.108
G1X0.051Y-0.11
G1X0.049Y-0.112
G1X0.046Y-0.113
G1X0.044Y-0.114
G1X0.04Y-0.115
G1X0.038Y-0.117
G1X0.035Y-0.118
G1X0.033Y-0.119
G1X0.029Y-0.121
G1X0.026Y-0.121
G1X0.024Y-0.123
G1X0.02Y-0.124
G1X0.018Y-0.124
G1X0.014Y-0.126
G1X0.011Y-0.126
G1X0.008Y-0.128
G1X0.005Y-0.128
G1Y-0.129
G1Y-5
; Cut @ 40 mm/min, 40% power
M8
G0X20.002Y0
; Layer C18
G1X-10S40
G1Y5
G1Y0.129
G1X0.006Y0.128
G1X0.009Y0.128
G1X0.011Y0.126
G1X0.014Y0.126
G1X0.018Y0.124
G1X0.02Y0.124
G1X0.024Y0.123
G1X0.026Y0.121
G1X0.029Y0.121
G1X0.033Y0.119
G1X0.035Y0.118
G1X0.038Y0.117
G1X0.04Y0.115
G1X0.044Y0.114
G1X0.046Y0.113
G1X0.049Y0.112
G1X0.051Y0.11
G1X0.054Y0.108
G1X0.056Y0.107
G1X0.059Y0.106
G1X0.062Y0.104
G1X0.064Y0.102
G1X0.066Y0.101
G1X0.068Y0.098
G1X0.071Y0.098
G1X0.073Y0.095
G1X0.076Y0.093
G1X0.077Y0.092
G1X0.08Y0.09
G1X0.082Y0.088
G1X0.083Y0.086
G1X0.086Y0.083
G1X0.088Y0.082
G1X0.09Y0.08
G1X0.092Y0.077
G1X0.093Y0.076
G1X0.095Y0.073
G1X0.098Y0.071
G1X0.098Y0.068
G1X0.101Y0.066
G1X0.102Y0.064
G1X0.104Y0.062
G1X0.106Y0.059
G1X0.107Y0.056
G1X0.108Y0.054
G1X0.11Y0.051
G1X0.112Y0.049
G1X0.113Y0.046
G1X0.114Y0.044
G1X0.115Y0.04
G1X0.117Y0.038
G1X0.118Y0.035
G1X0.119Y0.033
G1X0.121Y0.029
G1X0.121Y0.026
G1X0.123Y0.024
G1X0.124Y0.02
G1X0.124Y0.018
G1X0.126Y0.014
G1X0.126Y0.011
G1X0.128Y0.008
G1X0.128Y0.005
G1X0.129
G1X0.129
G1X0.128
G1X0.128Y-0.013
G1X0.126Y-0.011
G1X0.126Y-0.014
G1X0.124Y-0.018
G1X0.124Y-0.02
G1X0.123Y-0.024
G1X0.121Y-0.026
G1X0.121Y-0.029
G1X0.119Y-0.033
G1X0.118Y-0.035
G1X0.117Y-0.038
G1X0.115Y-0.04
G1X0.114Y-0.044
G1X0.113Y-0.046
G1X0.112Y-0.049
G1X0.11Y-0.051
G1X0.108Y-0.054
G1X0.107Y-0.056
G1X0.106Y-0.059
G1X0.104Y-0.062
G1X0.102Y-0.064
G1X0.101Y-0.066
G1X0.098Y-0.068
G1X0.098Y-0.071
G1X0.095Y-0.073
G1X0.093Y-0.076
G1X0.092Y-0.077
G1X0.09Y-0.08
G1X0.088Y-0.082
G1X0.086Y-0.083
G1X0.083Y-0.086
G1X0.082Y-0.088
G1X0.08Y-0.09
G1X0.077Y-0.092
G1X0.076Y-0.093
G1X0.073Y-0.095
G1X0.071Y-0.098
G1X0.068Y-0.098
G1X0.066Y-0.101
G1X0.064Y-0.102
G1X0.062Y-0.104
G1X0.059Y-0.106
G1X0.056Y-0.107
G1X0.054Y-0.108
G1X0.051Y-0.11
G1X0.049Y-0.112
G1X0.046Y-0.113
G1X0.044Y-0.114
G1X0.04Y-0.115
G1X0.038Y-0.117
G1X0.035Y-0.118
G1X0.033Y-0.119
G1X0.029Y-0.121
G1X0.026Y-0.121
G1X0.024Y-0.123
G1X0.02Y-0.124
G1X0.018Y-0.124
G1X0.014Y-0.126
G1X0.011Y-0.126
G1X0.008Y-0.128
G1X0.005Y-0.128
G1Y-0.129
G1Y-5
; Cut @ 40 mm/min, 20% power
M8
G0X20.002Y0
; Layer C19
G1X-10S20
G1Y5
G1Y0.129
G1X0.006Y0.128
G1X0.009Y0.128
G1X0.011Y0.126
G1X0.014Y0.126
G1X0.018Y0.124
G1X0.02Y0.124
G1X0.024Y0.123
G1X0.026Y0.121
G1X0.029Y0.121
G1X0.033Y0.119
G1X0.035Y0.118
G1X0.038Y0.117
G1X0.04Y0.115
G1X0.044Y0.114
G1X0.046Y0.113
G1X0.049Y0.112
G1X0.051Y0.11
G1X0.054Y0.108
G1X0.056Y0.107
G1X0.059Y0.106
G1X0.062Y0.104
G1X0.064Y0.102
G1X0.066Y0.101
G1X0.068Y0.098
G1X0.071Y0.098
G1X0.073Y0.095
G1X0.076Y0.093
G1X0.077Y0.092
G1X0.08Y0.09
G1X0.082Y0.088
G1X0.083Y0.086
G1X0.086Y0.083
G1X0.088Y0.082
G1X0.09Y0.08
G1X0.092Y0.077
G1X0.093Y0.076
G1X0.095Y0.073
G1X0.098Y0.071
G1X0.098Y0.068
G1X0.101Y0.066
G1X0.102Y0.064
G1X0.104Y0.062
G1X0.106Y0.059
G1X0.107Y0.056
G1X0.108Y0.054
G1X0.11Y0.051
G1X0.112Y0.049
G1X0.113Y0.046
G1X0.114Y0.044
G1X0.115Y0.04
G1X0.117Y0.038
G1X0.118Y0.035
G1X0.119Y0.033
G1X0.121Y0.029
G1X0.121Y0.026
G1X0.123Y0.024
G1X0.124Y0.02
G1X0.124Y0.018
G1X0.126Y0.014
G1X0.126Y0.011
G1X0.128Y0.008
G1X0.128Y0.005
G1X0.129
G1X0.129
G1X0.128
G1X0.128Y-0.013
G1X0.126Y-0.011
G1X0.126Y-0.014
G1X0.124Y-0.018
G1X0.124Y-0.02
G1X0.123Y-0.024
G1X0.121Y-0.026
G1X0.121Y-0.029
G1X0.119Y-0.033
G1X0.118Y-0.035
G1X0.117Y-0.038
G1X0.115Y-0.04
G1X0.114Y-0.044
G1X0.113Y-0.046
G1X0.112Y-0.049
G1X0.11Y-0.051
G1X0.108Y-0.054
G1X0.107Y-0.056
G1X0.106Y-0.059
G1X0.104Y-0.062
G1X0.102Y-0.064
G1X0.101Y-0.066
G1X0.098Y-0.068
G1X0.098Y-0.071
G1X0.095Y-0.073
G1X0.093Y-0.076
G1X0.092Y-0.077
G1X0.09Y-0.08
G1X0.088Y-0.082
G1X0.086Y-0.083
G1X0.083Y-0.086
G1X0.082Y-0.088
G1X0.08Y-0.09
G1X0.077Y-0.092
G1X0.076Y-0.093
G1X0.073Y-0.095
G1X0.071Y-0.098
G1X0.068Y-0.098
G1X0.066Y-0.101
G1X0.064Y-0.102
G1X0.062Y-0.104
G1X0.059Y-0.106
G1X0.056Y-0.107
G1X0.054Y-0.108
G1X0.051Y-0.11
G1X0.049Y-0.112
G1X0.046Y-0.113
G1X0.044Y-0.114
G1X0.04Y-0.115
G1X0.038Y-0.117
G1X0.035Y-0.118
G1X0.033Y-0.119
G1X0.029Y-0.121
G1X0.026Y-0.121
G1X0.024Y-0.123
G1X0.02Y-0.124
G1X0.018Y-0.124
G1X0.014Y-0.126
G1X0.011Y-0.126
G1X0.008Y-0.128
G1X0.005Y-0.128
G1Y-0.129
G1Y-5
; Cut @ 20 mm/min, 100% power
M8
G0X-79.998Y20
; Layer C20
G1X-10S100F20
G1Y5
G1Y0.129
G1X0.006Y0.128
G1X0.009Y0.128
G1X0.011Y0.126
G1X0.014Y0.126
G1X0.018Y0.124
G1X0.02Y0.124
G1X0.024Y0.123
G1X0.026Y0.121
G1X0.029Y0.121
G1X0.033Y0.119
G1X0.035Y0.118
G1X0.038Y0.117
G1X0.04Y0.115
G1X0.044Y0.114
G1X0.046Y0.113
G1X0.049Y0.112
G1X0.051Y0.11
G1X0.054Y0.108
G1X0.056Y0.107
G1X0.059Y0.106
G1X0.062Y0.104
G1X0.064Y0.102
G1X0.066Y0.101
G1X0.068Y0.098
G1X0.071Y0.098
G1X0.073Y0.095
G1X0.076Y0.093
G1X0.077Y0.092
G1X0.08Y0.09
G1X0.082Y0.088
G1X0.083Y0.086
G1X0.086Y0.083
G1X0.088Y0.082
G1X0.09Y0.08
G1X0.092Y0.077
G1X0.093Y0.076
G1X0.095Y0.073
G1X0.098Y0.071
G1X0.098Y0.068
G1X0.101Y0.066
G1X0.102Y0.064
G1X0.104Y0.062
G1X0.106Y0.059
G1X0.107Y0.056
G1X0.108Y0.054
G1X0.11Y0.051
G1X0.112Y0.049
G1X0.113Y0.046
G1X0.114Y0.044
G1X0.115Y0.04
G1X0.117Y0.038
G1X0.118Y0.035
G1X0.119Y0.033
G1X0.121Y0.029
G1X0.121Y0.026
G1X0.123Y0.024
G1X0.124Y0.02
G1X0.124Y0.018
G1X0.126Y0.014
G1X0.126Y0.011
G1X0.128Y0.008
G1X0.128Y0.005
G1X0.129
G1X0.129
G1X0.128
G1X0.128Y-0.013
G1X0.126Y-0.011
G1X0.126Y-0.014
G1X0.124Y-0.018
G1X0.124Y-0.02
G1X0.123Y-0.024
G1X0.121Y-0.026
G1X0.121Y-0.029
G1X0.119Y-0.033
G1X0.118Y-0.035
G1X0.117Y-0.038
G1X0.115Y-0.04
G1X0.114Y-0.044
G1X0.113Y-0.046
G1X0.112Y-0.049
G1X0.11Y-0.051
G1X0.108Y-0.054
G1X0.107Y-0.056
G1X0.106Y-0.059
G1X0.104Y-0.062
G1X0.102Y-0.064
G1X0.101Y-0.066
G1X0.098Y-0.068
G1X0.098Y-0.071
G1X0.095Y-0.073
G1X0.093Y-0.076
G1X0.092Y-0.077
G1X0.09Y-0.08
G1X0.088Y-0.082
G1X0.086Y-0.083
G1X0.083Y-0.086
G1X0.082Y-0.088
G1X0.08Y-0.09
G1X0.077Y-0.092
G1X0.076Y-0.093
G1X0.073Y-0.095
G1X0.071Y-0.098
G1X0.068Y-0.098
G1X0.066Y-0.101
G1X0.064Y-0.102
G1X0.062Y-0.104
G1X0.059Y-0.106
G1X0.056Y-0.107
G1X0.054Y-0.108
G1X0.051Y-0.11
G1X0.049Y-0.112
G1X0.046Y-0.113
G1X0.044Y-0.114
G1X0.04Y-0.115
G1X0.038Y-0.117
G1X0.035Y-0.118
G1X0.033Y-0.119
G1X0.029Y-0.121
G1X0.026Y-0.121
G1X0.024Y-0.123
G1X0.02Y-0.124
G1X0.018Y-0.124
G1X0.014Y-0.126
G1X0.011Y-0.126
G1X0.008Y-0.128
G1X0.005Y-0.128
G1Y-0.129
G1Y-5
; Cut @ 20 mm/min, 80% power
M8
G0X20.002Y0
; Layer C21
G1X-10S80
G1Y5
G1Y0.129
G1X0.006Y0.128
G1X0.009Y0.128
G1X0.011Y0.126
G1X0.014Y0.126
G1X0.018Y0.124
G1X0.02Y0.124
G1X0.024Y0.123
G1X0.026Y0.121
G1X0.029Y0.121
G1X0.033Y0.119
G1X0.035Y0.118
G1X0.038Y0.117
G1X0.04Y0.115
G1X0.044Y0.114
G1X0.046Y0.113
G1X0.049Y0.112
G1X0.051Y0.11
G1X0.054Y0.108
G1X0.056Y0.107
G1X0.059Y0.106
G1X0.062Y0.104
G1X0.064Y0.102
G1X0.066Y0.101
G1X0.068Y0.098
G1X0.071Y0.098
G1X0.073Y0.095
G1X0.076Y0.093
G1X0.077Y0.092
G1X0.08Y0.09
G1X0.082Y0.088
G1X0.083Y0.086
G1X0.086Y0.083
G1X0.088Y0.082
G1X0.09Y0.08
G1X0.092Y0.077
G1X0.093Y0.076
G1X0.095Y0.073
G1X0.098Y0.071
G1X0.098Y0.068
G1X0.101Y0.066
G1X0.102Y0.064
G1X0.104Y0.062
G1X0.106Y0.059
G1X0.107Y0.056
G1X0.108Y0.054
G1X0.11Y0.051
G1X0.112Y0.049
G1X0.113Y0.046
G1X0.114Y0.044
G1X0.115Y0.04
G1X0.117Y0.038
G1X0.118Y0.035
G1X0.119Y0.033
G1X0.121Y0.029
G1X0.121Y0.026
G1X0.123Y0.024
G1X0.124Y0.02
G1X0.124Y0.018
G1X0.126Y0.014
G1X0.126Y0.011
G1X0.128Y0.008
G1X0.128Y0.005
G1X0.129
G1X0.129
G1X0.128
G1X0.128Y-0.013
G1X0.126Y-0.011
G1X0.126Y-0.014
G1X0.124Y-0.018
G1X0.124Y-0.02
G1X0.123Y-0.024
G1X0.121Y-0.026
G1X0.121Y-0.029
G1X0.119Y-0.033
G1X0.118Y-0.035
G1X0.117Y-0.038
G1X0.115Y-0.04
G1X0.114Y-0.044
G1X0.113Y-0.046
G1X0.112Y-0.049
G1X0.11Y-0.051
G1X0.108Y-0.054
G1X0.107Y-0.056
G1X0.106Y-0.059
G1X0.104Y-0.062
G1X0.102Y-0.064
G1X0.101Y-0.066
G1X0.098Y-0.068
G1X0.098Y-0.071
G1X0.095Y-0.073
G1X0.093Y-0.076
G1X0.092Y-0.077
G1X0.09Y-0.08
G1X0.088Y-0.082
G1X0.086Y-0.083
G1X0.083Y-0.086
G1X0.082Y-0.088
G1X0.08Y-0.09
G1X0.077Y-0.092
G1X0.076Y-0.093
G1X0.073Y-0.095
G1X0.071Y-0.098
G1X0.068Y-0.098
G1X0.066Y-0.101
G1X0.064Y-0.102
G1X0.062Y-0.104
G1X0.059Y-0.106
G1X0.056Y-0.107
G1X0.054Y-0.108
G1X0.051Y-0.11
G1X0.049Y-0.112
G1X0.046Y-0.113
G1X0.044Y-0.114
G1X0.04Y-0.115
G1X0.038Y-0.117
G1X0.035Y-0.118
G1X0.033Y-0.119
G1X0.029Y-0.121
G1X0.026Y-0.121
G1X0.024Y-0.123
G1X0.02Y-0.124
G1X0.018Y-0.124
G1X0.014Y-0.126
G1X0.011Y-0.126
G1X0.008Y-0.128
G1X0.005Y-0.128
G1Y-0.129
G1Y-5
; Cut @ 20 mm/min, 60% power
M8
G0X20.002Y0
; Layer C22
G1X-10S60
G1Y5
G1Y0.129
G1X0.006Y0.128
G1X0.009Y0.128
G1X0.011Y0.126
G1X0.014Y0.126
G1X0.018Y0.124
G1X0.02Y0.124
G1X0.024Y0.123
G1X0.026Y0.121
G1X0.029Y0.121
G1X0.033Y0.119
G1X0.035Y0.118
G1X0.038Y0.117
G1X0.04Y0.115
G1X0.044Y0.114
G1X0.046Y0.113
G1X0.049Y0.112
G1X0.051Y0.11
G1X0.054Y0.108
G1X0.056Y0.107
G1X0.059Y0.106
G1X0.062Y0.104
G1X0.064Y0.102
G1X0.066Y0.101
G1X0.068Y0.098
G1X0.071Y0.098
G1X0.073Y0.095
G1X0.076Y0.093
G1X0.077Y0.092
G1X0.08Y0.09
G1X0.082Y0.088
G1X0.083Y0.086
G1X0.086Y0.083
G1X0.088Y0.082
G1X0.09Y0.08
G1X0.092Y0.077
G1X0.093Y0.076
G1X0.095Y0.073
G1X0.098Y0.071
G1X0.098Y0.068
G1X0.101Y0.066
G1X0.102Y0.064
G1X0.104Y0.062
G1X0.106Y0.059
G1X0.107Y0.056
G1X0.108Y0.054
G1X0.11Y0.051
G1X0.112Y0.049
G1X0.113Y0.046
G1X0.114Y0.044
G1X0.115Y0.04
G1X0.117Y0.038
G1X0.118Y0.035
G1X0.119Y0.033
G1X0.121Y0.029
G1X0.121Y0.026
G1X0.123Y0.024
G1X0.124Y0.02
G1X0.124Y0.018
G1X0.126Y0.014
G1X0.126Y0.011
G1X0.128Y0.008
G1X0.128Y0.005
G1X0.129
G1X0.129
G1X0.128
G1X0.128Y-0.013
G1X0.126Y-0.011
G1X0.126Y-0.014
G1X0.124Y-0.018
G1X0.124Y-0.02
G1X0.123Y-0.024
G1X0.121Y-0.026
G1X0.121Y-0.029
G1X0.119Y-0.033
G1X0.118Y-0.035
G1X0.117Y-0.038
G1X0.115Y-0.04
G1X0.114Y-0.044
G1X0.113Y-0.046
G1X0.112Y-0.049
G1X0.11Y-0.051
G1X0.108Y-0.054
G1X0.107Y-0.056
G1X0.106Y-0.059
G1X0.104Y-0.062
G1X0.102Y-0.064
G1X0.101Y-0.066
G1X0.098Y-0.068
G1X0.098Y-0.071
G1X0.095Y-0.073
G1X0.093Y-0.076
G1X0.092Y-0.077
G1X0.09Y-0.08
G1X0.088Y-0.082
G1X0.086Y-0.083
G1X0.083Y-0.086
G1X0.082Y-0.088
G1X0.08Y-0.09
G1X0.077Y-0.092
G1X0.076Y-0.093
G1X0.073Y-0.095
G1X0.071Y-0.098
G1X0.068Y-0.098
G1X0.066Y-0.101
G1X0.064Y-0.102
G1X0.062Y-0.104
G1X0.059Y-0.106
G1X0.056Y-0.107
G1X0.054Y-0.108
G1X0.051Y-0.11
G1X0.049Y-0.112
G1X0.046Y-0.113
G1X0.044Y-0.114
G1X0.04Y-0.115
G1X0.038Y-0.117
G1X0.035Y-0.118
G1X0.033Y-0.119
G1X0.029Y-0.121
G1X0.026Y-0.121
G1X0.024Y-0.123
G1X0.02Y-0.124
G1X0.018Y-0.124
G1X0.014Y-0.126
G1X0.011Y-0.126
G1X0.008Y-0.128
G1X0.005Y-0.128
G1Y-0.129
G1Y-5
; Cut @ 20 mm/min, 40% power
M8
G0X20.002Y0
; Layer C23
G1X-10S40
G1Y5
G1Y0.129
G1X0.006Y0.128
G1X0.009Y0.128
G1X0.011Y0.126
G1X0.014Y0.126
G1X0.018Y0.124
G1X0.02Y0.124
G1X0.024Y0.123
G1X0.026Y0.121
G1X0.029Y0.121
G1X0.033Y0.119
G1X0.035Y0.118
G1X0.038Y0.117
G1X0.04Y0.115
G1X0.044Y0.114
G1X0.046Y0.113
G1X0.049Y0.112
G1X0.051Y0.11
G1X0.054Y0.108
G1X0.056Y0.107
G1X0.059Y0.106
G1X0.062Y0.104
G1X0.064Y0.102
G1X0.066Y0.101
G1X0.068Y0.098
G1X0.071Y0.098
G1X0.073Y0.095
G1X0.076Y0.093
G1X0.077Y0.092
G1X0.08Y0.09
G1X0.082Y0.088
G1X0.083Y0.086
G1X0.086Y0.083
G1X0.088Y0.082
G1X0.09Y0.08
G1X0.092Y0.077
G1X0.093Y0.076
G1X0.095Y0.073
G1X0.098Y0.071
G1X0.098Y0.068
G1X0.101Y0.066
G1X0.102Y0.064
G1X0.104Y0.062
G1X0.106Y0.059
G1X0.107Y0.056
G1X0.108Y0.054
G1X0.11Y0.051
G1X0.112Y0.049
G1X0.113Y0.046
G1X0.114Y0.044
G1X0.115Y0.04
G1X0.117Y0.038
G1X0.118Y0.035
G1X0.119Y0.033
G1X0.121Y0.029
G1X0.121Y0.026
G1X0.123Y0.024
G1X0.124Y0.02
G1X0.124Y0.018
G1X0.126Y0.014
G1X0.126Y0.011
G1X0.128Y0.008
G1X0.128Y0.005
G1X0.129
G1X0.129
G1X0.128
G1X0.128Y-0.013
G1X0.126Y-0.011
G1X0.126Y-0.014
G1X0.124Y-0.018
G1X0.124Y-0.02
G1X0.123Y-0.024
G1X0.121Y-0.026
G1X0.121Y-0.029
G1X0.119Y-0.033
G1X0.118Y-0.035
G1X0.117Y-0.038
G1X0.115Y-0.04
G1X0.114Y-0.044
G1X0.113Y-0.046
G1X0.112Y-0.049
G1X0.11Y-0.051
G1X0.108Y-0.054
G1X0.107Y-0.056
G1X0.106Y-0.059
G1X0.104Y-0.062
G1X0.102Y-0.064
G1X0.101Y-0.066
G1X0.098Y-0.068
G1X0.098Y-0.071
G1X0.095Y-0.073
G1X0.093Y-0.076
G1X0.092Y-0.077
G1X0.09Y-0.08
G1X0.088Y-0.082
G1X0.086Y-0.083
G1X0.083Y-0.086
G1X0.082Y-0.088
G1X0.08Y-0.09
G1X0.077Y-0.092
G1X0.076Y-0.093
G1X0.073Y-0.095
G1X0.071Y-0.098
G1X0.068Y-0.098
G1X0.066Y-0.101
G1X0.064Y-0.102
G1X0.062Y-0.104
G1X0.059Y-0.106
G1X0.056Y-0.107
G1X0.054Y-0.108
G1X0.051Y-0.11
G1X0.049Y-0.112
G1X0.046Y-0.113
G1X0.044Y-0.114
G1X0.04Y-0.115
G1X0.038Y-0.117
G1X0.035Y-0.118
G1X0.033Y-0.119
G1X0.029Y-0.121
G1X0.026Y-0.121
G1X0.024Y-0.123
G1X0.02Y-0.124
G1X0.018Y-0.124
G1X0.014Y-0.126
G1X0.011Y-0.126
G1X0.008Y-0.128
G1X0.005Y-0.128
G1Y-0.129
G1Y-5
; Cut @ 20 mm/min, 20% power
M8
G0X20.002Y0
; Layer C24
G1X-10S20
G1Y5
G1Y0.129
G1X0.006Y0.128
G1X0.009Y0.128
G1X0.011Y0.126
G1X0.014Y0.126
G1X0.018Y0.124
G1X0.02Y0.124
G1X0.024Y0.123
G1X0.026Y0.121
G1X0.029Y0.121
G1X0.033Y0.119
G1X0.035Y0.118
G1X0.038Y0.117
G1X0.04Y0.115
G1X0.044Y0.114
G1X0.046Y0.113
G1X0.049Y0.112
G1X0.051Y0.11
G1X0.054Y0.108
G1X0.056Y0.107
G1X0.059Y0.106
G1X0.062Y0.104
G1X0.064Y0.102
G1X0.066Y0.101
G1X0.068Y0.098
G1X0.071Y0.098
G1X0.073Y0.095
G1X0.076Y0.093
G1X0.077Y0.092
G1X0.08Y0.09
G1X0.082Y0.088
G1X0.083Y0.086
G1X0.086Y0.083
G1X0.088Y0.082
G1X0.09Y0.08
G1X0.092Y0.077
G1X0.093Y0.076
G1X0.095Y0.073
G1X0.098Y0.071
G1X0.098Y0.068
G1X0.101Y0.066
G1X0.102Y0.064
G1X0.104Y0.062
G1X0.106Y0.059
G1X0.107Y0.056
G1X0.108Y0.054
G1X0.11Y0.051
G1X0.112Y0.049
G1X0.113Y0.046
G1X0.114Y0.044
G1X0.115Y0.04
G1X0.117Y0.038
G1X0.118Y0.035
G1X0.119Y0.033
G1X0.121Y0.029
G1X0.121Y0.026
G1X0.123Y0.024
G1X0.124Y0.02
G1X0.124Y0.018
G1X0.126Y0.014
G1X0.126Y0.011
G1X0.128Y0.008
G1X0.128Y0.005
G1X0.129
G1X0.129
G1X0.128
G1X0.128Y-0.013
G1X0.126Y-0.011
G1X0.126Y-0.014
G1X0.124Y-0.018
G1X0.124Y-0.02
G1X0.123Y-0.024
G1X0.121Y-0.026
G1X0.121Y-0.029
G1X0.119Y-0.033
G1X0.118Y-0.035
G1X0.117Y-0.038
G1X0.115Y-0.04
G1X0.114Y-0.044
G1X0.113Y-0.046
G1X0.112Y-0.049
G1X0.11Y-0.051
G1X0.108Y-0.054
G1X0.107Y-0.056
G1X0.106Y-0.059
G1X0.104Y-0.062
G1X0.102Y-0.064
G1X0.101Y-0.066
G1X0.098Y-0.068
G1X0.098Y-0.071
G1X0.095Y-0.073
G1X0.093Y-0.076
G1X0.092Y-0.077
G1X0.09Y-0.08
G1X0.088Y-0.082
G1X0.086Y-0.083
G1X0.083Y-0.086
G1X0.082Y-0.088
G1X0.08Y-0.09
G1X0.077Y-0.092
G1X0.076Y-0.093
G1X0.073Y-0.095
G1X0.071Y-0.098
G1X0.068Y-0.098
G1X0.066Y-0.101
G1X0.064Y-0.102
G1X0.062Y-0.104
G1X0.059Y-0.106
G1X0.056Y-0.107
G1X0.054Y-0.108
G1X0.051Y-0.11
G1X0.049Y-0.112
G1X0.046Y-0.113
G1X0.044Y-0.114
G1X0.04Y-0.115
G1X0.038Y-0.117
G1X0.035Y-0.118
G1X0.033Y-0.119
G1X0.029Y-0.121
G1X0.026Y-0.121
G1X0.024Y-0.123
G1X0.02Y-0.124
G1X0.018Y-0.124
G1X0.014Y-0.126
G1X0.011Y-0.126
G1X0.008Y-0.128
G1X0.005Y-0.128
G1Y-0.129
G1Y-5
M9
G1S0
M5
; return to starting pos
G0 X-89.998Y-80
M2
